!!!COM: Bach, Johann Sebastian
!!!CDT: 1685/3//-1750/7/28/
!!!OTL@@DE: Was frag' ich nach der Welt
!!!AGN: 4-Part Chorale
!!!SCT: BH 255
!!!SCT: BWV 64
**harm	**root	**kern	**kern	**kern	**kern
!	!	!bass	!tenor	!alto	!soprno
*	*Iorgan	*Iorgan	*Iorgan	*Iorgan	*Iorgan
*M4/4	*M4/4	*M4/4	*M4/4	*M4/4	*M4/4
*met(c)	*met(c)	*met(c)	*met(c)	*met(c)	*met(c)
*MM60	*MM60	*MM60	*MM60	*MM60	*MM60
*k[]	*k[]	*k[]	*k[]	*k[]	*k[]
*G#:	*G#:	*G#:	*G#:	*G#:	*G#:
Vb	4AA	4F##	4d#	4a#	4dd#
=1	=1	=1	=1	=1	=1
I	4DD	8G#	4d#	4g#	4b#
.	.	8F##	.	.	.
I	4DD	8G#	4d#	8b#	4g#
.	.	8A#	.	8a#	.
Ib	4DD	8B#	4d#	4g#	4dd#
.	.	8A#	.	.	.
Ib	4DD	8B#	4g#	8dd#	4dd#
.	.	8G#	.	8b#	.
=2	=2	=2	=2	=2	=2
IV;	2.GG;	2.c#;	2.g#;	2.cc#;	2.ee#;
IV	4GG	4C#	4c#	4g#	4ee#
=3	=3	=3	=3	=3	=3
V7	4AA	8D#	4.c#	8f##	4a#
.	.	8C#	.	8g#	.
V7	4AA	8D#	.	8f##	4a#
.	.	8E#	8B#	8e#	.
Vb	4AA	8F##	4A#	4d#	4dd#
.	.	8E#	.	.	.
V7b	4AA	8F##	4d#	4a#	4cc#
.	.	8D#	.	.	.
=4	=4	=4	=4	=4	=4
I	4DD	4G#	4d#	4g#	4b#
I;	4DD;	4G#;	4B#;	4d#;	4g#;
r	4r	4r	4r	4r	4r
Ib	4DD	4B#	4d#	4g#	4dd#
=5	=5	=5	=5	=5	=5
IV	4GG	4c#	8c#	4g#	4ee#
.	.	.	8d#	.	.
ii	4EE	4A#	4e#	4cc#	4ee#
Ic	4DD	4d#	8f##	4b#	4dd#
.	.	.	8g#	.	.
V7	4AA	4D#	8g#	4a#	4cc#
.	.	.	8f##	.	.
=6	=6	=6	=6	=6	=6
I;	2.DD;	2.G#;	2.g#;	2.d#;	2.b#;
V	4AA	4D#	4f##	4f##	4a#
=7	=7	=7	=7	=7	=7
I	4DD	8G#	4d#	4g#	4b#
.	.	8F##	.	.	.
V7d/V	4EE	8G#	4e#	4a#	4cc##
.	.	8E#	.	.	.
Vb	4.AA	8F##	4.d#	4.a#	4.dd#
.	.	8E#	.	.	.
.	.	8F##	.	.	.
vib	8BB	8G#	8g#	8b#	8ee#
=8	=8	=8	=8	=8	=8
V/V	2EE	4A#	2e#	2a#	2cc##
.	.	4AA#	.	.	.
V;	4AA;	4D#;	4f##;	4a#;	4dd#;
V	4AA	4D#	4f##	4a#	4dd#
!!linebreak: 2
=9	=9	=9	=9	=9	=9
I	4DD	8G#	4g#	8b#	4dd#
.	.	8F##	.	8a#	.
I	4DD	8G#	4g#	8b#	4dd#
.	.	8A#	.	8cc#	.
Ib	4DD	8B#	4g#	8dd#	4gg#
.	.	8A#	.	8cc#	.
I7b	4DD	8B#	4g#	8dd#	4ff#
.	.	8G#	.	8b#	.
=10	=10	=10	=10	=10	=10
IV;	2.GG;	2.c#;	2.g#;	2.cc#;	2.ee#;
Vb/II	4BB	4G##	8e#	4b#	4ee#
.	.	.	8d#	.	.
=11	=11	=11	=11	=11	=11
II	4EE	8A#	8c##	4a#	4ee#
.	.	8G##	8B#	.	.
II	4EE	8A#	8c##	4a#	4ee#
.	.	8B#	8d#	.	.
IIb	4EE	8c##	8e#	4a#	4aa#
.	.	8B#	8d#	.	.
II7b	4EE	8c##	8e#	4a#	4gg#
.	.	8A#	8c##	.	.
=12	=12	=12	=12	=12	=12
V;	2.AA;	2.d#;	2.d#;	2.a#;	2.ff##
Ib	4DD	4B#	4g#	4g#	4dd#
=13	=13	=13	=13	=13	=13
IV	4GG	8c#	4g#	4cc#	4ee#
.	.	8d#	.	.	.
Ib	4DD	8c#	4g#	4dd#	4dd#
.	.	8B#	.	.	.
IV	4GG	8c#	4g#	4cc#	4ee#
.	.	8B#	.	.	.
viioD7c/vi	4AA#	8c#	4a#	8ee#	4ff##
.	.	8A#	.	8dd##	.
=14	=14	=14	=14	=14	=14
vi;	2.BB;	2.e#;	2.b#;	2.ee#;	2.gg#;
Vb	4AA	4F##	4a#	8dd#	4dd#
.	.	.	.	8cc#	.
=15	=15	=15	=15	=15	=15
I	4DD	8G#	4g#	4b#	4dd#
.	.	8A#	.	.	.
iii7	4FF#	8B#	4d#	8a#	8cc#
.	.	8c#	.	8g#	8b#
V	4AA	4d#	8d#	4g#	4a#
.	.	.	8e#	.	.
V	4AA	4D#	8d#	4f##	4a#
.	.	.	8c#	.	.
=16	=16	=16	=16	=16	=16
I;	2.DD;	2.G#;	2.B#;	2.d#;	2.g#;
==	==	==	==	==	==
*-	*-	*-	*-	*-	*-
!!chor2scor: -l 2 -s 0.6 -o %b.pmx
!!!YEC: Copyright 1994, David Huron
!!!YEC: Changes/Additions 2001 by Craig Stuart Sapp
!!!YEN: United States of America
!!!SMA: 371 Bach Chorales, edited by Ludwig Erk, C.F. Peters
!!!PDT: 1850, 1865
!!!ONB: Harmony and Root analysis done manually
